src/assets/images/google-app.svg

<svg width="173" height="60" viewBox="0 0 173 60" fill="none" xmlns="http://www.w3.org/2000/svg">
<rect width="172.174" height="60" rx="12" transform="matrix(-1 0 0 1 172.174 0)" fill="white"/>
<path d="M33.126 28.6748L20.9819 41.8551C20.9831 41.8574 20.9831 41.8609 20.9842 41.8632C21.3572 43.2944 22.6347 44.3477 24.1517 44.3477C24.7585 44.3477 25.3276 44.1797 25.8158 43.8858L25.8546 43.8624L39.5236 35.7968L33.126 28.6748Z" fill="#EA4335"/>
<path d="M45.4112 26.4304L45.3998 26.4222L39.4983 22.9242L32.8497 28.9743L39.5223 35.7954L45.3918 32.3324C46.4206 31.7632 47.1198 30.6539 47.1198 29.3755C47.1198 28.1042 46.4309 27.0008 45.4112 26.4304Z" fill="#FBBC04"/>
<path d="M20.9815 16.8402C20.9085 17.1155 20.8698 17.4047 20.8698 17.7033V40.994C20.8698 41.2926 20.9085 41.5819 20.9827 41.856L33.543 29.0127L20.9815 16.8402Z" fill="#4285F4"/>
<path d="M33.2155 29.3477L39.5002 22.922L25.8471 14.8272C25.351 14.5227 24.7716 14.3478 24.1522 14.3478C22.6352 14.3478 21.3554 15.4034 20.9825 16.8357C20.9825 16.8369 20.9813 16.838 20.9813 16.8392L33.2155 29.3477Z" fill="#34A853"/>
<path d="M65.0087 22.9088C64.3739 22.9088 63.7826 22.7849 63.2348 22.5371C62.6913 22.2893 62.2174 21.948 61.813 21.5132C61.4087 21.074 61.0913 20.5697 60.8609 20.0001C60.6348 19.4262 60.5217 18.8132 60.5217 18.161C60.5217 17.474 60.6435 16.8436 60.887 16.2697C61.1348 15.6958 61.4717 15.198 61.8978 14.7762C62.3239 14.3545 62.8065 14.0284 63.3457 13.798C63.8891 13.5675 64.4543 13.4523 65.0413 13.4523C65.6978 13.4523 66.3348 13.6066 66.9522 13.9153C67.5739 14.2197 68.1217 14.6914 68.5957 15.3306L67.1739 16.0936C66.8826 15.7371 66.5478 15.4719 66.1696 15.298C65.7957 15.1197 65.413 15.0306 65.0217 15.0306C64.6391 15.0306 64.2717 15.1088 63.9196 15.2653C63.5717 15.4219 63.2609 15.6436 62.987 15.9306C62.7174 16.2132 62.5043 16.548 62.3478 16.9349C62.1913 17.3175 62.113 17.7371 62.113 18.1936C62.113 18.624 62.1891 19.0306 62.3413 19.4132C62.4935 19.7914 62.7022 20.124 62.9674 20.411C63.237 20.6936 63.5478 20.9153 63.9 21.0762C64.2522 21.2371 64.6304 21.3175 65.0348 21.3175C65.3043 21.3175 65.5674 21.2762 65.8239 21.1936C66.0848 21.1066 66.3283 20.9827 66.5543 20.8219C66.7848 20.661 66.9891 20.4653 67.1674 20.2349C67.35 20.0045 67.5022 19.7436 67.6239 19.4523H65.9609V18.0632H69.4957C69.513 18.7284 69.4087 19.3523 69.1826 19.9349C68.9565 20.5175 68.637 21.0327 68.2239 21.4806C67.8109 21.9284 67.3304 22.2784 66.7826 22.5306C66.2348 22.7827 65.6435 22.9088 65.0087 22.9088ZM70.6926 22.7393V13.6088H76.4187V15.2001H72.2839V17.0523H75.5643V18.6436H72.2839V21.148H76.4187V22.7393H70.6926ZM84.7643 13.6088V15.2001H81.973V22.7393H80.3817V15.2001H77.5904V13.6088H84.7643ZM89.3962 22.7393V13.6088H90.9875V22.7393H89.3962ZM99.6675 13.6088V15.2001H96.8762V22.7393H95.2849V15.2001H92.4935V13.6088H99.6675ZM108.343 22.9088C107.726 22.9088 107.145 22.7871 106.602 22.5436C106.058 22.2958 105.58 21.9545 105.167 21.5197C104.754 21.0849 104.43 20.5827 104.195 20.0132C103.96 19.4393 103.843 18.8262 103.843 18.174C103.843 17.5219 103.96 16.911 104.195 16.3414C104.43 15.7675 104.754 15.2632 105.167 14.8284C105.58 14.3936 106.058 14.0545 106.602 13.811C107.145 13.5632 107.726 13.4393 108.343 13.4393C108.965 13.4393 109.547 13.5632 110.091 13.811C110.634 14.0545 111.112 14.3936 111.526 14.8284C111.939 15.2632 112.26 15.7675 112.491 16.3414C112.726 16.911 112.843 17.5219 112.843 18.174C112.843 18.8262 112.726 19.4393 112.491 20.0132C112.26 20.5827 111.939 21.0849 111.526 21.5197C111.112 21.9545 110.634 22.2958 110.091 22.5436C109.547 22.7871 108.965 22.9088 108.343 22.9088ZM108.343 21.3175C108.743 21.3175 109.119 21.2349 109.471 21.0697C109.823 20.9045 110.132 20.6784 110.397 20.3914C110.667 20.1001 110.876 19.7653 111.023 19.3871C111.176 19.0088 111.252 18.6045 111.252 18.174C111.252 17.7436 111.176 17.3393 111.023 16.961C110.871 16.5784 110.66 16.2436 110.391 15.9566C110.126 15.6697 109.817 15.4436 109.465 15.2784C109.117 15.1132 108.743 15.0306 108.343 15.0306C107.943 15.0306 107.567 15.1132 107.215 15.2784C106.862 15.4436 106.552 15.6719 106.282 15.9632C106.017 16.2501 105.808 16.5827 105.656 16.961C105.508 17.3393 105.434 17.7436 105.434 18.174C105.434 18.6088 105.51 19.0153 105.662 19.3936C105.815 19.7719 106.023 20.1066 106.289 20.398C106.558 20.6849 106.867 20.911 107.215 21.0762C107.567 21.2371 107.943 21.3175 108.343 21.3175ZM114.026 22.7393V13.6088H115.748L119.603 19.8632V13.6088H121.194V22.7393H119.479L115.618 16.4849V22.7393H114.026Z" fill="#213B58"/>
<path d="M129.954 42.5857H131.935V29.1804H129.954V42.5857ZM147.797 34.0091L145.526 39.8212H145.458L143.102 34.0091H140.968L144.502 42.1321L142.488 46.6509H144.553L150 34.0091H147.797ZM136.563 41.063C135.913 41.063 135.009 40.7359 135.009 39.9241C135.009 38.8904 136.135 38.4936 137.109 38.4936C137.979 38.4936 138.39 38.6834 138.919 38.9419C138.765 40.1836 137.706 41.063 136.563 41.063ZM136.802 33.7164C135.368 33.7164 133.881 34.3544 133.268 35.7688L135.026 36.5098C135.402 35.7688 136.101 35.5265 136.836 35.5265C137.86 35.5265 138.902 36.1474 138.919 37.2519V37.3891C138.56 37.1822 137.792 36.8723 136.853 36.8723C134.958 36.8723 133.028 37.9242 133.028 39.8898C133.028 41.6838 134.582 42.8398 136.323 42.8398C137.655 42.8398 138.39 42.2361 138.851 41.5284H138.919V42.5632H140.831V37.4234C140.831 35.0439 139.073 33.7164 136.802 33.7164ZM124.559 35.6412H121.742V31.0462H124.559C126.04 31.0462 126.881 32.2848 126.881 33.3432C126.881 34.3823 126.04 35.6412 124.559 35.6412ZM124.508 29.1804H119.762V42.5857H121.742V37.5071H124.508C126.704 37.5071 128.862 35.9007 128.862 33.3432C128.862 30.7857 126.704 29.1804 124.508 29.1804ZM98.625 41.0651C97.2565 41.0651 96.111 39.9081 96.111 38.3188C96.111 36.7125 97.2565 35.5372 98.625 35.5372C99.9764 35.5372 101.036 36.7125 101.036 38.3188C101.036 39.9081 99.9764 41.0651 98.625 41.0651ZM100.9 34.7598H100.831C100.386 34.2247 99.5316 33.741 98.454 33.741C96.196 33.741 94.1269 35.7442 94.1269 38.3188C94.1269 40.8753 96.196 42.8623 98.454 42.8623C99.5316 42.8623 100.386 42.3787 100.831 41.8254H100.9V42.4827C100.9 44.2274 99.9764 45.1604 98.488 45.1604C97.2735 45.1604 96.5208 44.2789 96.213 43.5358L94.4857 44.2618C94.9815 45.4714 96.299 46.9565 98.488 46.9565C100.814 46.9565 102.781 45.5743 102.781 42.2061V34.0166H100.9V34.7598ZM104.15 42.5857H106.134V29.1793H104.15V42.5857ZM109.058 38.1634C109.007 36.4015 110.409 35.5029 111.418 35.5029C112.205 35.5029 112.872 35.8997 113.094 36.4701L109.058 38.1634ZM115.215 36.6428C114.839 35.6241 113.693 33.741 111.35 33.741C109.024 33.741 107.091 35.5887 107.091 38.3017C107.091 40.8581 109.007 42.8623 111.571 42.8623C113.642 42.8623 114.839 41.5841 115.335 40.841L113.796 39.804C113.283 40.5643 112.581 41.0651 111.571 41.0651C110.563 41.0651 109.844 40.5986 109.382 39.6839L115.42 37.1607L115.215 36.6428ZM67.115 35.1404V37.0749H71.698C71.5611 38.1634 71.2022 38.958 70.6555 39.5102C69.9877 40.1847 68.9442 40.9279 67.115 40.9279C64.2921 40.9279 62.0861 38.6298 62.0861 35.7795C62.0861 32.9282 64.2921 30.6312 67.115 30.6312C68.6374 30.6312 69.7489 31.236 70.5695 32.0135L71.9209 30.6484C70.7744 29.5428 69.2531 28.6957 67.115 28.6957C63.2496 28.6957 60 31.8752 60 35.7795C60 39.6839 63.2496 42.8623 67.115 42.8623C69.2011 42.8623 70.7744 42.1707 72.0059 40.8753C73.2724 39.5971 73.6652 37.8009 73.6652 36.349C73.6652 35.8996 73.6312 35.4857 73.5622 35.1404H67.115ZM78.8767 41.0651C77.5083 41.0651 76.3277 39.9252 76.3277 38.3017C76.3277 36.6599 77.5083 35.5372 78.8767 35.5372C80.2441 35.5372 81.4246 36.6599 81.4246 38.3017C81.4246 39.9252 80.2441 41.0651 78.8767 41.0651ZM78.8767 33.741C76.3787 33.741 74.3436 35.6584 74.3436 38.3017C74.3436 40.9278 76.3787 42.8623 78.8767 42.8623C81.3736 42.8623 83.4088 40.9278 83.4088 38.3017C83.4088 35.6584 81.3736 33.741 78.8767 33.741ZM88.7636 41.0651C87.3951 41.0651 86.2146 39.9252 86.2146 38.3017C86.2146 36.6599 87.3951 35.5372 88.7636 35.5372C90.132 35.5372 91.3115 36.6599 91.3115 38.3017C91.3115 39.9252 90.132 41.0651 88.7636 41.0651ZM88.7636 33.741C86.2666 33.741 84.2315 35.6584 84.2315 38.3017C84.2315 40.9278 86.2666 42.8623 88.7636 42.8623C91.2605 42.8623 93.2956 40.9278 93.2956 38.3017C93.2956 35.6584 91.2605 33.741 88.7636 33.741Z" fill="#213B58"/>
</svg>

<svg xmlns="http://www.w3.org/2000/svg" width="173" height="60" fill="none" viewBox="0 0 173 60"><rect width="172.174" height="60" fill="#fff" rx="12" transform="matrix(-1 0 0 1 172.174 0)"/><path fill="#ea4335" d="m33.126 28.675-12.144 13.18.002.008c.373 1.431 1.65 2.485 3.168 2.485.607 0 1.176-.168 1.664-.462l.039-.024 13.669-8.065z"/><path fill="#fbbc04" d="m45.411 26.43-.011-.008-5.902-3.498-6.648 6.05 6.672 6.821 5.87-3.463a3.37 3.37 0 0 0 1.728-2.957 3.36 3.36 0 0 0-1.709-2.945"/><path fill="#4285f4" d="M20.982 16.84a3.4 3.4 0 0 0-.112.863v23.291q0 .45.113.862l12.56-12.843z"/><path fill="#34a853" d="m33.216 29.348 6.284-6.426-13.653-8.095a3.23 3.23 0 0 0-1.695-.48c-1.517 0-2.797 1.056-3.17 2.489v.003z"/><path fill="#213b58" d="M65.009 22.909a4.25 4.25 0 0 1-1.774-.372 4.4 4.4 0 0 1-1.422-1.024A5 5 0 0 1 60.861 20a5 5 0 0 1-.34-1.839q0-1.03.366-1.891a4.7 4.7 0 0 1 2.459-2.472 4.3 4.3 0 0 1 1.695-.346q.985 0 1.911.463.933.457 1.644 1.416l-1.422.763a2.8 2.8 0 0 0-1.004-.796 2.64 2.64 0 0 0-2.25-.033 3 3 0 0 0-.933.666q-.405.423-.64 1.004a3.3 3.3 0 0 0-.234 1.259q0 .645.228 1.22.228.566.626.997.404.424.933.665a2.7 2.7 0 0 0 1.924.118q.39-.13.73-.372.346-.242.613-.587a3.3 3.3 0 0 0 .457-.783H65.96v-1.389h3.535a4.8 4.8 0 0 1-.313 1.872 4.8 4.8 0 0 1-.96 1.546 4.5 4.5 0 0 1-1.44 1.05 4.2 4.2 0 0 1-1.774.378m5.684-.17v-9.13h5.726V15.2h-4.135v1.852h3.28v1.592h-3.28v2.504h4.135v1.591zm14.071-9.13V15.2h-2.791v7.54h-1.591V15.2H77.59v-1.59zm4.632 9.13v-9.13h1.591v9.13zm10.272-9.13V15.2h-2.792v7.54h-1.591V15.2h-2.791v-1.59zm8.675 9.3a4.2 4.2 0 0 1-1.741-.365 4.6 4.6 0 0 1-1.435-1.024 4.8 4.8 0 0 1-1.324-3.346q0-.978.352-1.833a4.8 4.8 0 0 1 .972-1.513 4.5 4.5 0 0 1 1.435-1.017 4.15 4.15 0 0 1 1.741-.372q.932 0 1.748.372a4.5 4.5 0 0 1 1.435 1.017q.619.653.965 1.513.352.854.352 1.833 0 .978-.352 1.84a4.8 4.8 0 0 1-.965 1.506 4.6 4.6 0 0 1-1.435 1.024 4.2 4.2 0 0 1-1.748.365m0-1.591q.6 0 1.128-.248.528-.249.926-.679.405-.436.626-1.004.23-.567.229-1.213 0-.645-.229-1.213a3.2 3.2 0 0 0-.632-1.004 3 3 0 0 0-.926-.679 2.6 2.6 0 0 0-1.122-.247q-.6 0-1.128.247a3 3 0 0 0-.933.685q-.398.43-.626.998a3.3 3.3 0 0 0-.222 1.213q0 .652.228 1.22.229.567.627 1.004.404.43.926.678.528.241 1.128.241m5.683 1.421v-9.13h1.722l3.855 6.254V13.61h1.591v9.13h-1.715l-3.861-6.254v6.254zm15.929 19.848h1.981V29.18h-1.981zm17.843-8.577-2.271 5.812h-.068l-2.356-5.812h-2.134l3.534 8.123-2.014 4.519h2.065L150 34.009zm-11.234 7.054c-.65 0-1.554-.327-1.554-1.139 0-1.034 1.126-1.43 2.1-1.43.87 0 1.281.19 1.81.448-.154 1.242-1.213 2.121-2.356 2.121m.239-7.347c-1.434 0-2.921.638-3.534 2.053l1.758.74c.376-.74 1.075-.983 1.81-.983 1.024 0 2.066.621 2.083 1.726v.137c-.359-.207-1.127-.517-2.066-.517-1.895 0-3.825 1.052-3.825 3.018 0 1.794 1.554 2.95 3.295 2.95 1.332 0 2.067-.604 2.528-1.312h.068v1.035h1.912v-5.14c0-2.38-1.758-3.707-4.029-3.707m-12.243 1.925h-2.817v-4.595h2.817c1.481 0 2.322 1.239 2.322 2.297 0 1.04-.841 2.298-2.322 2.298m-.051-6.46h-4.746v13.405h1.98v-5.079h2.766c2.196 0 4.354-1.606 4.354-4.164s-2.158-4.163-4.354-4.163M98.625 41.064c-1.368 0-2.514-1.157-2.514-2.746 0-1.607 1.145-2.782 2.514-2.782 1.351 0 2.411 1.175 2.411 2.782 0 1.59-1.06 2.746-2.411 2.746m2.275-6.305h-.069c-.445-.535-1.3-1.019-2.377-1.019-2.258 0-4.327 2.003-4.327 4.578 0 2.556 2.069 4.543 4.327 4.543 1.078 0 1.932-.483 2.377-1.037h.069v.658c0 1.744-.924 2.677-2.412 2.677-1.215 0-1.967-.881-2.275-1.624l-1.727.726c.495 1.21 1.813 2.694 4.002 2.694 2.326 0 4.293-1.382 4.293-4.75v-8.19H100.9zm3.25 7.826h1.984V29.179h-1.984zm4.908-4.423c-.051-1.761 1.351-2.66 2.36-2.66.787 0 1.454.397 1.676.967zm6.157-1.52c-.376-1.019-1.522-2.902-3.865-2.902-2.326 0-4.259 1.848-4.259 4.56 0 2.557 1.916 4.561 4.48 4.561 2.071 0 3.268-1.278 3.764-2.021l-1.539-1.037c-.513.76-1.215 1.261-2.225 1.261-1.008 0-1.727-.466-2.189-1.381l6.038-2.523zm-48.1-1.503v1.935h4.583c-.137 1.088-.496 1.883-1.042 2.435-.668.675-1.712 1.418-3.541 1.418-2.823 0-5.029-2.298-5.029-5.148 0-2.852 2.206-5.149 5.029-5.149 1.522 0 2.634.605 3.455 1.383l1.35-1.366c-1.146-1.105-2.667-1.952-4.805-1.952-3.865 0-7.115 3.18-7.115 7.083 0 3.905 3.25 7.083 7.115 7.083 2.086 0 3.66-.691 4.89-1.987 1.267-1.278 1.66-3.074 1.66-4.526 0-.45-.034-.863-.103-1.209zm11.762 5.925c-1.369 0-2.55-1.14-2.55-2.763 0-1.642 1.181-2.765 2.55-2.765 1.367 0 2.548 1.123 2.548 2.765 0 1.623-1.18 2.763-2.548 2.763m0-7.324c-2.498 0-4.533 1.917-4.533 4.56 0 2.627 2.035 4.561 4.533 4.561 2.497 0 4.532-1.934 4.532-4.56 0-2.644-2.035-4.561-4.532-4.561m9.887 7.324c-1.369 0-2.55-1.14-2.55-2.763 0-1.642 1.181-2.765 2.55-2.765s2.547 1.123 2.547 2.765c0 1.623-1.179 2.763-2.547 2.763m0-7.324c-2.497 0-4.532 1.917-4.532 4.56 0 2.627 2.035 4.561 4.532 4.561s4.532-1.934 4.532-4.56c0-2.644-2.036-4.561-4.532-4.561"/></svg>
